X:1
T:Watchman, Blow the Gospel Trumpet
T:William James Kirkpatrick
T:Watchman, Blow the Gospel Trumpet
T:Public Domain
T:Public Domain
C:William James Kirkpatrick
Z:Public Domain
%%score ( 1 2 ) ( 3 4 )
L:1/8
M:4/4
K:Ab
V:1 treble 
V:2 treble 
V:3 bass 
V:4 bass 
V:1
 [CA]3 [DB] [CA]ECE | [CA]4 [Ec]4 | [DF]3 [DG] [=DA][DG][DA][Dc] | [EB]6 z2 | [CA]3 [DB] [CA]ECE | %5
w: 1.~Watch- man, blow the Gos- pel|ery soul|a warn- ing give; Who- so-|ev-|er hears the mes- sage May|
w: 2.~Sound it loud o’er ev- ery|y shade|and sun- ny plain; O- cean|depths|re- peat the mes- sage, Full|
w: 3.~Sound it in the hedge and|dark spots|where ex- iles roam; Let it|tell|all things are rea- dy, Fa-|
w: 4.~Sound it for the heav- y|y, long-|ing to be free; Sound a|Sav-|ior’s in- vi- ta- tion, Sweet-|
 [CA]4 [Ec]4 | [EB]3 [Ec] [EB]E[=DG][DF] | E6 z2 ||"^Refrain" [Gd]3 [GB] [EG]E[Ec][EB] | %9
w: turn and|live. * * * * *|||
w: glad re-|frain. Blow the trum- pet, trust-|watch-|Blow it loud o’er land and|
w: wel- come|home. * * * * *|||
w: “Come to|Me.” * * * * *|||
 [EA]4 [CE]4 | [CA]3 [CA] AGAB | (=E2 F2 [Ec]2 (3ccc) | [Ec]3 [Ec] [CB][CE][CA][Ec] | %13
w: ||||
w: God com-|mis- sions, sound the mes- sage!|cap- * * * * *|may be free. * * *|
w: ||||
w: ||||
 (E2 _G2) [Fd]4 | [Fd][Fc][FB][FA] [Ec]2 [DB]2 | [CA]6 z2 |] %16
w: |||
w: |||
w: |||
w: |||
V:2
 x5 ECE | x8 | x8 | x8 | x5 ECE | x8 | x5 E x2 | E6 x2 || x5 E x2 | x8 | x4 F2 F2 | c4- x4 | x8 | %13
w: trum- pet, Ev-||||re- pent, and|||||||||
w: hill- top, Gloom-||||sal- va- tion’s||y|man,|sea;||Ev- ery|tive||
w: high- way, Earth’s||||ther waits to|||||||||
w: la- den, Wear-||||ly say- ing,|||||||||
 e4 x4 | x8 | x8 |] %16
w: |||
w: |||
w: |||
w: |||
V:3
 [A,,E,]3 [A,,E,] [A,,E,]E,C,E, | [A,,E,]4 [A,,A,]4 | [D,A,]3 [D,B,] [B,,B,][B,,B,][B,,F,][B,,A,] | %3
w: ~ ~ ~ ~ ~ ~|~ ~|~ ~ ~ ~ ~ ~|
 [E,G,]6 z2 | [A,,E,]3 [A,,E,] [A,,E,]E,C,E, | [A,,E,]4 [A,,A,]4 | %6
w: ~|~ ~ ~ ~ ~ ~|~ ~|
 [B,,G,]3 [B,,A,] [B,,G,][B,,G,][B,,B,][B,,A,] | [E,G,]6 z2 || [E,B,]3 [E,B,] [E,B,][E,G,]E,[E,D] | %9
w: ~ ~ ~ ~ ~ ~|~|~ ~ ~ ~ loud o’er|
 [A,,C]4 [A,,A,]4 | [F,A,]3 [F,A,] [D,F,]2 [D,F,]2 | [C,G,]2 [F,A,]2 [E,G,]2 z2 | %12
w: and sea|||
 [A,,A,]3 [A,,E,] [A,,E,][A,,A,][A,,A,][A,,A,] | [C,A,]4 [D,A,]4 | %14
w: ||
 [B,,B,][C,A,][D,A,][=D,A,] [E,A,]2 [E,G,]2 | [A,,E,A,]6 z2 |] %16
w: ||
V:4
 x5 E,C,E, | x8 | x8 | x8 | x5 E,C,E, | x8 | x8 | x8 || x6 E, x | x8 | x8 | x8 | x8 | x8 | x8 | %15
w: ~ ~ ~||||~ ~ ~||||land|||||||
 x8 |] %16
w: |

